!!!COM: Samuel Scheidt
!!!OPR: Tabulatura nova
!!!OTL: 4. Canon a 3 Voc. in 5. Cantio sacra
!!!YOR: S. Scheidt, Werke, edited by G. Harms and C. Mahrenholz
!!!YOR: Vol. VI/1, Hamburg (1923-1962).
**kern	**kern	**kern
*CF	*guida	*conseq
*k[b-]	*k[b-]	*k[b-]
*M4/2	*M4/2	*M4/2
!4'stop	!	!
*Trd7c12	*	*
=1	=1	=1
1f	2BB-	2r
.	4D	2F
.	4BB-	.
2f	2.F	4A
.	.	4F
2g	.	[2c
.	4E	.
=2	=2	=2
1a	2.F	4c]
.	.	4B-
.	.	2.c
.	4E	.
2r	2D	.
.	.	4B-
2a	2r	2A
=3	=3	=3
2b-	8r	2r
.	8G	.
.	8D	.
.	8D	.
2a	2F	8r
.	.	8d
.	.	8A
.	.	8A
1g	8r	2c
.	8E-	.
.	8C	.
.	8C	.
.	2E-	8r
.	.	8B-
.	.	8G
.	.	8G
=4	=4	=4
2r	8r	2B-
.	8E-	.
.	8E-	.
.	8F	.
2g	2G	8r
.	.	8B-
.	.	8B-
.	.	8c
2f	4r	2d
.	4F	.
2g	4En	4r
.	4C	4c
=5	=5	=5
2b-	4G	4B-
.	4G	4G
2g	2G	4d
.	.	4d
1f#	2D	2d
.	2r	2A
=6	=6	=6
2g	4G	2r
.	4A	.
2g	2B-	4d
.	.	4e
2a	2.F	2f
2g	.	[2c
.	4E	.
=7	=7	=7
2f	4D	4c]
.	4D	4B-
2f	2D	4A
.	.	4A
(2f	2C	2A
2e)	2r	2G
=8	=8	=8
[0d	4BB-	2r
.	4C	.
.	4D	4F
.	4E	4G
.	1F	4A
.	.	4B-
.	.	[2c
=9	=9	=9
0d]	0F	2c]
.	.	1.c
==	==	==
*-	*-	*-
!!!CDT: 1587///-1654/3/30
!!!OCY: Deutschland
!!!ODT: 1624
!!!AFR: cantus firmus canon
!!!AST: polyphony
!!!AMT: simple quadruple
!!!AIN: vox
!!!YEP: David Huron and Denis Collins
!!!YEN: Canada
!!!EEV: 1.0
!!!RDT: 1995 April 29
!!!YED: 1995 August 31
